src/assets/king-black.svg

<?xml version="1.0" encoding="UTF-8" standalone="no"?>
<!DOCTYPE svg PUBLIC "-//W3C//DTD SVG 1.1//EN" "http://www.w3.org/Graphics/SVG/1.1/DTD/svg11.dtd">
<svg width="100%" height="100%" viewBox="0 0 378 423" version="1.1" xmlns="http://www.w3.org/2000/svg" xmlns:xlink="http://www.w3.org/1999/xlink" xml:space="preserve" style="fill-rule:evenodd;clip-rule:evenodd;stroke-linejoin:round;stroke-miterlimit:2;">
    <g transform="matrix(1,0,0,1,-67.225,-54.85)">
        <path d="M405.995,477.15L105.995,477.15L105.995,417.15L405.995,417.15L405.995,477.15ZM395.695,370.02L116.295,370.02C120.212,379.956 122.459,390.471 122.945,401.14L389.045,401.14C389.531,390.471 391.778,379.956 395.695,370.02ZM255.995,128.96C236.378,128.96 220.235,145.103 220.235,164.72C220.235,214.88 255.995,264.06 255.995,264.06C255.995,264.06 291.755,214.88 291.755,164.72C291.755,145.103 275.612,128.96 255.995,128.96ZM263.995,113.58L263.995,94.24L282.355,94.24L282.355,78.24L263.995,78.24L263.995,54.85L247.995,54.85L247.995,78.24L229.635,78.24L229.635,94.24L247.995,94.24L247.995,113.62C253.294,112.78 258.692,112.766 263.995,113.58ZM345.635,164.94C332.547,164.924 319.585,167.511 307.505,172.55C304.275,224.3 270.435,271.4 268.925,273.48L263.995,280.24L263.995,354L403.995,354C420.565,327.85 444.775,311.59 444.775,264C444.742,209.638 399.997,164.925 345.635,164.93L345.635,164.94ZM204.475,172.55C192.404,167.528 179.459,164.942 166.385,164.942C112.003,164.942 67.248,209.678 67.225,264.06C67.225,311.61 91.435,327.88 108.005,354.06L247.995,354.06L247.995,280.24L243.055,273.45C241.545,271.4 207.715,224.3 204.475,172.55Z" style="fill-rule:nonzero;stroke:white;stroke-width:5.33px;"/>
    </g>
</svg>

<svg xmlns="http://www.w3.org/2000/svg" viewBox="0 0 512 512"><g class="" style="" transform="translate(0,0)"><path d="M405.995 477.15h-300v-60h300v60zm-10.3-107.13h-279.4a96.88 96.88 0 0 1 6.65 31.12h266.1a96.88 96.88 0 0 1 6.65-31.12zm-139.7-241.06a35.76 35.76 0 0 0-35.76 35.76c0 50.16 35.76 99.34 35.76 99.34s35.76-49.18 35.76-99.34a35.76 35.76 0 0 0-35.76-35.76zm8-15.38V94.24h18.36v-16h-18.36V54.85h-16v23.39h-18.36v16h18.36v19.38a51.9 51.9 0 0 1 16-.04zm81.64 51.36a98.74 98.74 0 0 0-38.13 7.61c-3.23 51.75-37.07 98.85-38.58 100.93l-4.93 6.76V354h140c16.57-26.15 40.78-42.41 40.78-90a99.13 99.13 0 0 0-99.14-99.07zm-141.16 7.61a99.16 99.16 0 0 0-137.25 91.51c0 47.55 24.21 63.82 40.78 90h139.99v-73.82l-4.94-6.79c-1.51-2.05-35.34-49.15-38.58-100.9z" fill="#000000" fill-opacity="1" stroke="#ffffff" stroke-width="6"></path></g></svg>
